X:1
T:Gesammelte Motetten
T:Gott, du bleibest wie du bist
T:Johann Heinrich Rolle
T:Psalm 102,28-29
T:Gott, du bleibest wie du bist
T:CPDL - Creative Commons Attribution Non Commercial 3.0
T:CPDL - Creative Commons Attribution Non Commercial 3.0
T:CPDL - Creative Commons Attribution Non Commercial 3.0
T:CPDL - Creative Commons Attribution Non Commercial 3.0
C:Johann Heinrich Rolle
Z:CPDL - Creative Commons Attribution Non Commercial 3.0
%%score [ 1 2 3 4 ]
L:1/8
M:4/4
K:G
V:1 treble nm="Sopran"
V:2 treble nm="Alt"
V:3 treble-8 nm="Tenor"
V:4 bass nm="Bass"
V:1
"^Tutti" G4 z2"^Solo" B2 | A2 G2 g2 e2 | d4 z4 | z4 B2 A2 | G4 z2 G2 | d4 d4 | d4 d4 | d4 d2 d2 | %8
w: Gott! du|blei- best wie du|bist,|wie du|bist und|dei- ne|Jah- re|neh- men kein|
 B2 A2 z4 | z2 ^G2 A2 B2 | c2 B2 z4 | z4 e2 ee | c2 B2 z2 B2 | c2 c2 c2 A2 | =fe f4 f2 | %15
w: En- de,|und dei- ne|Jah- re|neh- men kein|En- de; die|Kin- der dei- ner|Knech- * te, die|
 =f2 d2 d2 B2 | ed e2 e2 e2 | (e2 d4 c2 | B2 A4) G2 | (d4 c2 B2) | A4 D2 c2 | c2 B2 g2 B2 | %22
w: Kin- der dei- ner|Knech- * te wer- den|blei- * *|* * ben,|blei- * *|ben, wer- den|blei- ben, wer- den|
 B2 A2 z4 | G4 e4 | d2 cB c2 BA | B2 AG A4 | G2 G2 c4 | B2 AG e2 dc | d2 e2 (d2 c2) | B2 B2 A2 G2 | %30
w: blei- ben|und ihr|Sa- me * wird vor *|dir ge- * dei-|hen, vor dir,|wird vor * dir, vor *|dir ge- dei- *|hen, vor dir ge-|
 FE D2 z2 D2 | d4 z4 | z8 | z8 | z8 | z8 | z8 | G4 e4 | d2 cB c2 BA | B2 AG A4 | G4 c2 BA | %41
w: dei- * hen, vor|dir,||||||und ihr|Sa- me * wird vor *|dir ge- * dei-|hen, wird vor *|
 B2 AG (e2 dc | d2 cB c2 BA) | B2 g2 g2 f2 | f2 e2 e2 d2 | d2 c2 c2 B2 | A2 e2 d2 c2 | (B4 A4) | %48
w: dir ge- * dei- * *||hen, ihr Sa- me|wird vor dir ge-|dei- hen, wird vor|dir, vor dir ge-|dei- *|
 G4 z4 |] %49
w: hen.|
V:2
 D4 z4 | z4 B2 c2 | B4 z2 B2 | A2 G2 G2 F2 | D4 z4 | z2 F2 G2 A2 | B2 F2 G2 A2 | B2 F2 G2 AA | %8
w: Gott!|wie du|bist, du|blei- best wie du|bist|und dei- ne|Jah- re, dei- ne|Jah- re neh- men kein|
 G2 F2 z4 | z2 E2 F2 ^G2 | A2 ^G2 A2 B2 | c2 ^G2 A2 BB | A2 ^G2 z2 G2 | A2 A2 A2 A2 | A2 A4 A2 | %15
w: En- de,|und dei- ne|Jah- re, dei- ne|Jah- re neh- men kein||||
 G2 G2 G2 G2 | G2 G2 G2 G2 | (F4 D4-) | D4 D4 | (D6 G2) | F4 D2 A2 | A2 G2 B2 G2 | G2 F2 z4 | z8 | %24
w: |||* ben,|blei- *|ben, wer- den|blei- ben, wer- den|blei- ben||
 z8 | z8 | z8 | z8 | z8 | z8 | D4 G4 | A2 GF G2 FE | F2 ED E4 | D2 D2 G4 | F2 ED B2 AG | %35
w: ||||||und ihr|Sa- me * wird vor *|dir ge- * dei-|hen, vor dir,|wird vor * dir, vor *|
 A2 B2 (A2 G2) | F2 F2 G2 A2 | B4 c2 c2 | B2 AG A2 GF | G2 D2 D4 | D4 F4 | G4 G2 G2 | %42
w: dir ge- dei- *|hen, vor dir ge-|dei- hen, ihr|Sa- me * wird vor *|dir ge- dei-|hen, vor|dir, wird vor|
 G2 G2 (F2 GA) | G2 B2 A2 A2 | G2 G2 F2 F2 | E2 E2 D2 G2 | F2 F2 G2 A2 | (G4 F3 E/D/) | D4 z4 |] %49
w: dir ge- dei~~~~\- * *|||||||
V:3
 B4 z2 d2 | c2 B2 d2 G2 | G4 z2 d2 | c2 B2 d2 d2 | B4 z4 | z2 d2 e2 f2 | g2 f2 e2 d2 | d4 d2 d2 | %8
w: Gott! du|blei- best wie du|bist, du|blei- best wie du|bist|und dei- ne|Jah- re neh- men,|neh- men kein|
 d2 d2 z2 A2 | e4 e4 | e4 e4 | e4 e2 e2 | e2 E2 z4 | z4 z2 c2 | c2 c2 c2 c2 | BA B4 B2 | %16
w: En- de, und|dei- ne|Jah- re|neh- men kein|En- de;|die|Kin- der dei- ner|Knech- * te, die|
 B2 B2 B2 B2 | AG A2 A2 A2 | G2 c2 c2 B2 | (A4 G4) | d4 z4 | d2 d2 z4 | d2 D2 z4 | z8 | z8 | z8 | %26
w: Kin- der dei- ner|Knech- * te, dei- ner|Knech- te wer- den|blei- *|ben,|blei- ben,|blei- ben||||
 G4 e4 | d2 cB c2 BA | B2 AG A4 | G2 d2 c2 B2 | A2 F2 G4 | F2 ED B2 AG | A2 GF G4 | F4 d2 d2 | %34
w: und ihr|Sa- me * wird vor *|dir ge- * dei-|hen, ihr Sa- me|wird vor dir,|wird vor * dir, vor *|dir ge- * dei-|hen, wird vor|
 d4 d4 | d2 d2 (d2 ^c2) | d4 z2 =c2 | B4 z4 | G4 e4 | d2 cB c2 BA | B2 AG A4 | G4 z4 | z2 d2 d4 | %43
w: dir, vor|dir ge- dei- *|hen, vor|dir,|und ihr|Sa- me * wird vor *|dir ge- * dei-|hen,|ge- dei-|
 d2 d2 d2 d2 | B2 B2 B2 B2 | G2 G2 G2 d2 | d2 A2 B2 e2 | (d4 c4) | B4 z4 |] %49
w: hen, ihr Sa- me|wird vor dir ge-|dei- hen, wird vor|dir, vor dir ge-|dei- *|hen.|
V:4
 G,4 z4 | z4 G,2 G,2 | G,4 z2 G,2 | G,2 G,2 D,2 D,2 | G,,4 z4 | z8 | z2 D,2 E,2 F,2 | %7
w: ||||||und dei- ne|
 G,2 D,2 E,2 F,F, | G,2 D,2 z4 | z8 | z2 E,2 F,2 ^G,2 | A,2 E,2 F,2 ^G,G, | A,2 E,2 z4 | %13
w: Jah- re neh- men kein|En- de,||und dei- ne|Jah- re neh- men kein|En- de;|
 z4 z2 A,2 | D,2 D,2 D,2 D,2 | G,2 G,,2 z2 G,2 | C,2 C,2 C,2 C,2 | ^F,2 F,2 F,2 F,2 | %18
w: |||||
 G,2 G,,2 G,2 G,2 | (F,4 G,4) | D,4 z4 | G,2 G,,2 z4 | D,2 D,2 z4 | z8 | z8 | z8 | z8 | z8 | z8 | %29
w: |||||||||||
 z8 | z8 | z8 | z8 | D,4 B,4 | A,2 G,F, G,2 F,E, | F,2 E,D, E,4 | D,2 C2 B,2 A,2 | G,8- | G,8- | %39
w: ||||und ihr|Sa- me * wird vor *|dir ge- * dei-|hen, vor dir ge-|dei-||
 G,4 F,4 | G,4 z4 | z4 C2 B,A, | B,2 A,G, (A,2 G,F,) | G,2 G,2 D2 D,2 | E,2 G,2 B,2 B,,2 | %45
w: |hen,|wird vor *|dir ge- * dei- * *|hen, * * *||
 C,2 E,2 G,2 G,,2 | D,2 C,2 B,,2 C,2 | D,8 | G,,4 z4 |] %49
w: ||||

